icon/ir/missing-font.svg

<svg stroke-width="1.5" viewBox="0 0 24 24" fill="none" xmlns="http://www.w3.org/2000/svg" height="1em" width="1em">
  <path d="M3.46875 18.3744L4.53321 16.0325M14.1134 18.3744L13.0489 16.0325M13.0489 16.0325L8.79105 6.66528L4.53321 16.0325M13.0489 16.0325H4.53321" stroke="currentColor" stroke-linecap="round" stroke-linejoin="round"/>
  <path d="M15.1777 8.79421C15.1777 5.06857 21.0323 5.0686 21.0323 8.79421C21.0323 11.4554 18.3711 10.9231 18.3711 14.1164" stroke="currentColor" stroke-linecap="round" stroke-linejoin="round"/>
  <path d="M18.3711 18.385L18.3817 18.3732" stroke="currentColor" stroke-linecap="round" stroke-linejoin="round"/>
</svg>

<svg width="24" height="24" stroke-width="1.5" fill="none" xmlns="http://www.w3.org/2000/svg"><path d="m3.469 18.374 1.064-2.341m9.58 2.341-1.064-2.341m0 0L8.79 6.664l-4.258 9.367m8.516 0H4.533M15.178 8.794c0-3.725 5.854-3.725 5.854 0 0 2.661-2.66 2.13-2.66 5.322M18.371 18.385l.01-.012" stroke="currentColor" stroke-linecap="round" stroke-linejoin="round"/></svg>
